resources/svg/git-diff-light.svg

<svg xmlns="http://www.w3.org/2000/svg" viewBox="0 0 256 256" fill="currentColor"><path d="M202.00244,154.54077l-.00195-34.65991A53.64287,53.64287,0,0,0,186.18506,81.7002L158.48584,54h25.51465a6,6,0,0,0,0-12h-40a6.00673,6.00673,0,0,0-1.10449.106c-.019.00354-.03809.00488-.05713.00866a5.95009,5.95009,0,0,0-1.04053.30811c-.02637.0105-.05322.01843-.07959.02917a5.96215,5.96215,0,0,0-.96875.50977c-.02344.01489-.04736.02722-.07031.04248a6.03607,6.03607,0,0,0-.91846.75024l-.00293.00245-.00146.00207a6.036,6.036,0,0,0-.75245.92053c-.01464.022-.02636.04505-.04052.06726a5.981,5.981,0,0,0-.51172.97181c-.01026.02563-.01807.052-.02832.07788a5.9643,5.9643,0,0,0-.3086,1.04028c-.0039.02026-.00537.04053-.00927.06079a6.04274,6.04274,0,0,0-.10547,1.09961V88a6,6,0,0,0,12,0V62.48535l27.69922,27.69922a41.72678,41.72678,0,0,1,12.30078,29.69629l.00195,34.66016a33.9993,33.9993,0,1,0,12-.00025Zm-6,55.45923a22,22,0,1,1,22-22A22.02489,22.02489,0,0,1,196.00244,210Zm-84-48a6.00029,6.00029,0,0,0-6,6v25.51562L78.30225,165.81543a41.72918,41.72918,0,0,1-12.30079-29.69629l-.001-34.66a34,34,0,1,0-12,0l.001,34.66A53.64451,53.64451,0,0,0,69.81787,174.2998L97.51807,202H72.00244a6,6,0,1,0,0,12h40a5.99748,5.99748,0,0,0,1.104-.106c.01953-.00366.03906-.005.0581-.00879a5.93468,5.93468,0,0,0,1.043-.30908c.0249-.00989.05029-.01733.07519-.02759a5.97407,5.97407,0,0,0,.97608-.51367c.02051-.01343.042-.02417.062-.03784A6.02243,6.02243,0,0,0,117,211.31787c.01318-.01977.02393-.0404.03662-.0603a6.002,6.002,0,0,0,.51465-.97742c.00977-.02466.01758-.04993.02734-.07458a5.95479,5.95479,0,0,0,.30909-1.04322c.0039-.01941.00537-.03881.00878-.05835a6.00242,6.00242,0,0,0,.106-1.104V168A6.00029,6.00029,0,0,0,112.00244,162Zm-74.002-94a22,22,0,1,1,22,22A22.02489,22.02489,0,0,1,38.00049,68Z"/></svg>

<svg xmlns="http://www.w3.org/2000/svg" viewBox="0 0 256 256" fill="currentColor"><path d="M202,154.5V119.9a53.7,53.7,0,0,0-15.8-38.2L158.5,54H184a6,6,0,0,0,0-12H144a6,6,0,0,0-6,6V88a6,6,0,0,0,12,0V62.5l27.7,27.7A41.8,41.8,0,0,1,190,119.9v34.6a34,34,0,1,0,12,0ZM196,210a22,22,0,1,1,22-22A22.1,22.1,0,0,1,196,210Zm-84-48a6,6,0,0,0-6,6v25.5L78.3,165.8A41.8,41.8,0,0,1,66,136.1V101.5a34,34,0,1,0-12,0v34.6a53.7,53.7,0,0,0,15.8,38.2L97.5,202H72a6,6,0,0,0,0,12h40a6,6,0,0,0,6-6V168A6,6,0,0,0,112,162ZM38,68A22,22,0,1,1,60,90,22.1,22.1,0,0,1,38,68Z"/></svg>
